Printex-remake/img/icons/catalog_sliced/11.svg

<svg width="83" height="95" viewBox="0 0 83 95" fill="none" xmlns="http://www.w3.org/2000/svg">
<rect width="49.5248" height="27.4876" transform="matrix(0.866041 -0.499972 0.866041 0.499972 4.97754 74.6289)" fill="#E5D795"/>
<path d="M1.12811 67.7755L30.3909 50.8819L54.1963 64.6249L24.9335 81.5185L9.15356 73.7112L1.12811 67.7755Z" fill="#E5D795"/>
<path d="M40 94.4998L82.5 69.9998L63.1808 59.418C63.1328 59.3917 63.0865 59.366 63.0398 59.3376C62.5682 59.0507 59.8403 57.2849 59.8404 54.8212L59.8413 6.03387C59.8414 0.955743 56.9471 0.81642 55.5 1.38152L12.5 25.8815L14 26.3815C16.8 26.7815 17.8333 30.2132 18 31.8791V74.8136C18 77.4355 18.7089 79.5329 19.4375 80.9963C20.2833 82.695 21.8314 83.8681 23.4693 84.8265L40 94.4998Z" fill="#FFEFA6"/>
<path d="M18 31.8794V74.814C18 77.4358 18.7089 79.5333 19.4375 80.9966C20.2833 82.6954 21.8314 83.8684 23.4693 84.8268L40 94.5002L82.5 70.0002L63.1808 59.4183C63.1328 59.3921 63.0865 59.3663 63.0398 59.3379C62.5683 59.0511 59.8403 57.2852 59.8404 54.8215L59.8413 6.03418" stroke="black" stroke-linejoin="bevel"/>
<path d="M13 74.9346V32" stroke="black" stroke-linejoin="bevel"/>
<path d="M12 26.0342L55 1.53418" stroke="black" stroke-linejoin="bevel"/>
<path d="M18 31.8227C18.0001 33.7982 16.4331 34.5988 14.5001 33.6111C12.5671 32.6233 11.0001 30.2211 11 28.2456C10.9999 26.2702 12.5669 25.4695 14.4999 26.4573C16.4329 27.4451 17.9999 29.8473 18 31.8227Z" stroke="black" stroke-linejoin="bevel"/>
<path d="M8 72.6704C8.00007 74.6458 6.43313 75.4465 4.50013 74.4587C2.56713 73.4709 1.00007 71.0688 1 69.0933C0.999929 67.1178 2.56687 66.3172 4.49987 67.305C6.43287 68.2927 7.99993 70.6949 8 72.6704Z" fill="#E5D795"/>
<path d="M16 30.9285C16 31.9162 15.3285 32.3165 14.5001 31.8226C13.6716 31.3287 13 30.1276 13 29.1399C13 28.1522 13.6715 27.7518 14.4999 28.2457C15.3284 28.7396 16 29.9407 16 30.9285Z" stroke="black" stroke-linejoin="bevel"/>
<path d="M60 6.53394C59.9999 4.44442 59.4774 2.53172 58 1.53403C57.0043 0.861643 56 0.783373 55 1.53414" stroke="black" stroke-linejoin="bevel"/>
<path d="M55.8772 48.1949L45.4112 33.8818L38.6656 50.8953L34.467 48.4712L24 66.6005L55.8772 48.1949Z" fill="white"/>
<path d="M55.8772 48.1949L45.4112 33.8818L38.6656 50.8953L34.467 48.4712L24 66.6005" stroke="black"/>
<circle r="4.41546" transform="matrix(0.86601 -0.500028 -3.18907e-05 1 29.8891 44.1593)" fill="white"/>
<path d="M29.9914 48.6588C27.8792 49.8784 26.1669 48.8931 26.167 46.4581C26.1671 44.0231 27.8795 41.0604 29.9917 39.8408" stroke="black"/>
</svg>

<svg width="83" height="95" fill="none" xmlns="http://www.w3.org/2000/svg"><path fill="#E5D795" d="M4.978 74.629l42.89-24.761L71.674 63.61l-42.89 24.761z"/><path d="M1.128 67.775l29.263-16.893 23.805 13.743-29.262 16.894-15.78-7.808-8.026-5.936z" fill="#E5D795"/><path d="M40 94.5L82.5 70 63.18 59.418a3.558 3.558 0 01-.14-.08c-.472-.287-3.2-2.053-3.2-4.517l.001-48.787c0-5.078-2.894-5.218-4.341-4.652l-43 24.5 1.5.5c2.8.4 3.833 3.831 4 5.497v42.935c0 2.622.709 4.719 1.438 6.182.845 1.699 2.393 2.872 4.031 3.83L40 94.5z" fill="#FFEFA6"/><path d="M18 31.88v42.934c0 2.622.709 4.72 1.438 6.183.845 1.698 2.393 2.871 4.031 3.83L40 94.5 82.5 70 63.18 59.418a3.437 3.437 0 01-.14-.08c-.472-.287-3.2-2.053-3.2-4.517l.001-48.787M13 74.935V32m-1-5.966l43-24.5" stroke="#000" stroke-linejoin="bevel"/><path d="M18 31.823c0 1.975-1.567 2.776-3.5 1.788-1.933-.988-3.5-3.39-3.5-5.365 0-1.976 1.567-2.776 3.5-1.789 1.933.988 3.5 3.39 3.5 5.366z" stroke="#000" stroke-linejoin="bevel"/><path d="M8 72.67c0 1.976-1.567 2.776-3.5 1.789-1.933-.988-3.5-3.39-3.5-5.366 0-1.975 1.567-2.776 3.5-1.788 1.933.988 3.5 3.39 3.5 5.365z" fill="#E5D795"/><path d="M16 30.928c0 .988-.671 1.388-1.5.895-.828-.494-1.5-1.695-1.5-2.683 0-.988.671-1.388 1.5-.894.828.494 1.5 1.695 1.5 2.683zM60 6.534c0-2.09-.523-4.002-2-5-.996-.672-2-.75-3 0" stroke="#000" stroke-linejoin="bevel"/><path d="M55.877 48.195L45.411 33.882l-6.745 17.013-4.199-2.424L24 66.601l31.877-18.406z" fill="#fff"/><path d="M55.877 48.195L45.411 33.882l-6.745 17.013-4.199-2.424L24 66.601" stroke="#000"/><circle r="4.415" transform="matrix(.86601 -.50003 -.00003 1 29.89 44.16)" fill="#fff"/><path d="M29.991 48.659c-2.112 1.22-3.824.234-3.824-2.2 0-2.436 1.712-5.399 3.825-6.618" stroke="#000"/></svg>
